svg/u1f937_1f3ff_200d_2642.svg

<svg viewBox="0 0 128 128" xmlns="http://www.w3.org/2000/svg">
  <linearGradient id="hand_2_" gradientTransform="matrix(1 0 0 -1 0 128)" gradientUnits="userSpaceOnUse" x1="16.3982" x2="16.3982" y1="53.0709" y2="85.5709">
    <stop offset="0.5" stop-color="#70534A"/>
    <stop offset="1" stop-color="#5C4037"/>
  </linearGradient>
  <path id="hand_1_" d="M26.28,62.35c-2.18-1.62-4.22-3.51-6.08-5.66c-0.95-1.05-2.83-2.78-4.69-2.62 c-0.38,0.03-0.87,0.16-1.34,0.51c-1.27-1.64-4.2-6.04-5.66-9.92c-0.59-1.23-1.62-1.43-2.33-1.23C4.92,43.8,4.11,45.4,4.3,47.17 c0.62,5.9,5.24,13.09,6.97,14.78l-0.03,0.02c3.4,4.14,3.72,10.18,3.72,10.24c0.02,0.47,0.37,0.86,0.83,0.94l9.51,1.59 c0.06,0.01,0.11,0.01,0.17,0.01c0.42,0,0.81-0.27,0.94-0.68c0.63-1.85,2.09-6.25,2.11-7.25C28.58,63.9,26.73,62.62,26.28,62.35z" fill="url(#hand_2_)"/>
  <linearGradient id="hand_3_" gradientTransform="matrix(1 0 0 -1 0 128)" gradientUnits="userSpaceOnUse" x1="111.8223" x2="111.8223" y1="53.0709" y2="85.5709">
    <stop offset="0.5" stop-color="#70534A"/>
    <stop offset="1" stop-color="#5C4037"/>
  </linearGradient>
  <path id="hand" d="M122.08,43.45c-0.71-0.22-1.77-0.02-2.41,1.31c-1.43,3.8-4.36,8.19-5.63,9.83 c-0.47-0.35-0.96-0.47-1.34-0.51c-1.86-0.16-3.74,1.57-4.7,2.63c-1.85,2.13-3.89,4.03-6.07,5.64c-0.45,0.27-2.3,1.54-2.24,4.48 c0.02,1,1.48,5.41,2.11,7.25c0.14,0.41,0.52,0.68,0.94,0.68c0.06,0,0.11,0,0.17-0.01l9.51-1.59c0.51-0.08,0.87-0.54,0.83-1.06 c0-0.05-0.34-5.39,3.71-10.11l-0.03-0.02c1.73-1.68,6.2-9.03,6.98-14.77C124.15,45.45,123.36,43.83,122.08,43.45z" fill="url(#hand_3_)"/>
  <g id="shirt">
    <linearGradient id="SVGID_1_" gradientTransform="matrix(1 0 0 -1 0 128)" gradientUnits="userSpaceOnUse" x1="64.0675" x2="64.0675" y1="44.5709" y2="1.8179">
      <stop offset="0" stop-color="#00BFA5"/>
      <stop offset="0.4701" stop-color="#00B29A"/>
      <stop offset="1" stop-color="#009E89"/>
    </linearGradient>
    <path d="M115.64,70.51c-0.02-0.8-0.65-1.45-1.45-1.51l-12.81-0.75c-0.04,0-0.07,0-0.11,0 c-0.78,0-1.45,0.59-1.54,1.38L97.05,88.6c-4.18-3.58-9.95-6.21-17.88-6.21c-2.61,0-27.58-0.12-30.2-0.12 c-7.93,0-13.7,2.63-17.88,6.21l-2.67-18.97c-0.09-0.79-0.76-1.38-1.55-1.38c-0.04,0-0.07,0-0.11,0l-12.81,0.75 c-0.8,0.06-1.42,0.71-1.45,1.51l-0.11,40.54c-0.14,7.11,5.58,12.94,12.69,12.94c4.92,0,8.86-3.69,9.46-8.31l0.03,0.02l0,8.41h1.5 h1.5h52.98h1.5h1.5l0-8.29l0.04-0.02c0.6,4.62,4.54,8.31,9.46,8.31c7.11,0,12.83-5.84,12.69-12.94L115.64,70.51z" fill="url(#SVGID_1_)"/>
    <path d="M99.06,123.1c-0.59-0.26-1.14-0.58-1.65-0.97c-0.71-0.53-1.35-1.16-1.89-1.86 c-1.02-1.31-1.69-2.89-1.91-4.59l-0.02,0.01l-0.38-10.68C93.21,105.01,93.84,114.16,99.06,123.1z" fill="#009984"/>
    <path d="M34.93,105.01l-0.38,10.59v0.01c-0.43,3.23-2.5,6-5.39,7.36C34.3,114.07,34.93,105.01,34.93,105.01z " fill="#009984"/>
  </g>
  <g id="neck">
    <path d="M54.92,78.33v9.98c0,4.51,3.62,8.17,9.08,8.17s9.08-3.66,9.08-8.17v-9.98L54.92,78.33z" fill="#3C2B24"/>
  </g>
  <g id="ears">
    <path d="M86.49,43.78l-49.72,6.05c-5.36,0.65-9.18,5.86-8.48,11.57c0.69,5.71,5.65,9.85,11.01,9.2 l49.72-6.05c5.36-0.65,9.18-5.86,8.48-11.57C96.81,47.27,91.85,43.13,86.49,43.78z" fill="#3C2B24"/>
  </g>
  <path id="head" d="M57.28,10.99L57.28,10.99L57.28,10.99C41.44,12.92,28.84,31.63,31.81,56 c2.95,24.23,19.51,34.38,34.9,32.51s29.04-15.69,26.09-39.93C89.83,24.21,73.11,9.07,57.28,10.99z" fill="#70534A"/>
  <path id="mouth" d="M71.05,75.72c0.22,2.78-2.21,3.55-5.27,3.79c-3.06,0.24-5.58-0.21-5.8-2.92 c-0.22-2.86,2.12-4.82,5.17-5.06C68.21,71.29,70.82,72.81,71.05,75.72z" fill="#1A1717"/>
  <path id="nose" d="M67.1,62.41c-0.1-0.03-0.2-0.04-0.3-0.04l-6.44,0.78c-0.1,0.02-0.19,0.06-0.28,0.11 c-0.56,0.31-0.8,0.95-0.45,1.56c0.35,0.61,1.85,2.26,4.44,1.95c2.58-0.31,3.64-2.28,3.84-2.95C68.1,63.14,67.71,62.58,67.1,62.41z" fill="#33251F"/>
  <g id="eyes">
    <ellipse cx="47.55" cy="56.45" fill="#1A1717" rx="4.49" ry="4.65" transform="matrix(0.9929 -0.1193 0.1193 0.9929 -6.3943 6.075)"/>
    <ellipse cx="77.32" cy="52.87" fill="#1A1717" rx="4.49" ry="4.65" transform="matrix(0.9929 -0.1193 0.1193 0.9929 -5.7549 9.6015)"/>
  </g>
  <g id="eyebrows">
    <path d="M81.77,45c-2.7-0.8-5.4-0.93-8.06,0.15c-0.87,0.35-1.82,1.2-2.78,1.29 c-0.69,0.07-1.36-0.39-1.54-1.07c-0.16-0.62,0.15-1.14,0.49-1.64c1.95-2.85,5.76-4.1,9.08-3.45c1.48,0.29,3.1,0.97,4.14,2.11 C84.08,43.47,83.46,45.46,81.77,45z" fill="#1A1717"/>
    <path d="M39.6,47.91c1.62-3.03,5.4-4.43,8.69-4.08c1.49,0.16,2.97,0.7,4.17,1.62 c0.91,0.7,2.08,2.14,0.61,3.04c-0.93,0.56-2.41-0.21-3.35-0.37c-1.35-0.22-2.74-0.19-4.07,0.1c-1.36,0.29-2.57,0.83-3.76,1.53 C40.63,50.47,38.81,49.47,39.6,47.91z" fill="#1A1717"/>
  </g>
  <g id="hairGroup">
    <path id="hair_7_" d="M56.56,4.43L56.56,4.43c-0.01,0-0.01,0-0.02,0c-0.01,0-0.01,0-0.02,0v0 c-41.69,5.2-27.47,51.83-27.47,51.83s2.46,4.69,3.57,6.76c0.16,0.3,0.61,0.21,0.64-0.13c0.42-4.09,1.94-18.6,3.04-23.09 c0.65-2.64,3.1-4.43,5.82-4.26c4.18,0.25,10.8,0.4,17.99-0.46c0.03,0,0.05-0.01,0.08-0.01s0.05-0.01,0.08-0.01 c7.19-0.86,13.59-2.55,17.59-3.78c2.6-0.8,5.4,0.36,6.66,2.78c2.12,4.09,6.98,17.76,8.36,21.69c0.11,0.32,0.57,0.3,0.66-0.03 l1.9-7.37C95.45,48.35,98.31-0.32,56.56,4.43z" fill="#232020"/>
    <radialGradient id="hairHighlights_1_" cx="59.7561" cy="84.0705" gradientTransform="matrix(0.993 -0.1184 -0.1336 -1.1203 13.1582 145.2378)" gradientUnits="userSpaceOnUse" r="35.2271">
      <stop offset="0.7945" stop-color="#444140" stop-opacity="0"/>
      <stop offset="1" stop-color="#444140"/>
    </radialGradient>
    <path id="hairHighlights" d="M95.45,48.35c0,0,2.87-48.67-38.88-43.92v0 c-0.01,0-0.01,0-0.01,0h0c-0.01,0-0.01,0-0.01,0l0,0c-0.65,0.08-1.28,0.17-1.9,0.27c-1.24,0.2-2.42,0.44-3.56,0.71 c-0.01,0-0.02,0.01-0.03,0.01c-0.08,0.02-0.16,0.04-0.24,0.06C16.2,14.1,29.07,56.26,29.07,56.26l3.57,6.72 c0.16,0.3,0.6,0.21,0.64-0.12c0.42-4.13,1.94-18.58,3.04-23.06c0.65-2.64,3.1-4.43,5.82-4.26c4.18,0.25,10.8,0.4,17.99-0.46 c0.03,0,0.05-0.01,0.08-0.01s0.05-0.01,0.08-0.01c7.19-0.86,13.59-2.55,17.59-3.78c2.6-0.8,5.4,0.36,6.66,2.78 c2.13,4.11,7.02,17.88,8.38,21.74c0.11,0.32,0.56,0.3,0.65-0.03C94.15,53.51,95.45,48.35,95.45,48.35z" fill="url(#hairHighlights_1_)"/>
  </g>
</svg>

<svg viewBox="0 0 128 128" xmlns="http://www.w3.org/2000/svg">
  <defs>
    <linearGradient id="hand_2_" gradientTransform="matrix(1 0 0 -1 0 0)" gradientUnits="userSpaceOnUse" x1="16.3982" x2="16.3982" y1="-74.9291" y2="-42.4291">
      <stop offset="0.5" stop-color="#70534A"/>
      <stop offset="1" stop-color="#5C4037"/>
    </linearGradient>
    <linearGradient id="hand_3_" gradientTransform="matrix(1 0 0 -1 0 0)" gradientUnits="userSpaceOnUse" x1="111.8223" x2="111.8223" y1="-74.9291" y2="-42.4291">
      <stop offset="0.5" stop-color="#70534A"/>
      <stop offset="1" stop-color="#5C4037"/>
    </linearGradient>
    <linearGradient id="SVGID_1_" gradientTransform="matrix(1 0 0 -1 0 0)" gradientUnits="userSpaceOnUse" x1="64.0675" x2="64.0675" y1="-83.4291" y2="-126.1821">
      <stop offset="0" stop-color="#00BFA5"/>
      <stop offset="0.4701" stop-color="#00B29A"/>
      <stop offset="1" stop-color="#009E89"/>
    </linearGradient>
    <radialGradient id="hairHighlights_1_" cx="55.623567" cy="-45.134631" gradientTransform="matrix(0.993 -0.1184 -0.1336 -1.1203 0 0)" gradientUnits="userSpaceOnUse" r="35.2271">
      <stop offset="0.7945" stop-color="#444140" stop-opacity="0"/>
      <stop offset="1" stop-color="#444140"/>
    </radialGradient>
  </defs>
  <path id="hand_1_" d="M26.28,62.35 C24.1,60.73 22.06,58.84 20.2,56.69 C19.25,55.64 17.37,53.91 15.51,54.07 C15.13,54.1 14.64,54.23 14.17,54.58 C12.9,52.94 9.97,48.54 8.51,44.66 C7.92,43.43 6.89,43.23 6.18,43.43 C4.92,43.8 4.11,45.4 4.3,47.17 C4.92,53.07 9.54,60.26 11.27,61.95 L11.24,61.97 C14.64,66.11 14.96,72.15 14.96,72.21 C14.98,72.68 15.33,73.07 15.79,73.15 L25.3,74.74 C25.36,74.75 25.41,74.75 25.47,74.75 C25.89,74.75 26.28,74.48 26.41,74.07 C27.04,72.22 28.5,67.82 28.52,66.82 C28.58,63.9 26.73,62.62 26.28,62.35 Z" fill="url(#hand_2_)"/>
  <path id="hand" d="M122.08,43.45 C121.37,43.23 120.31,43.43 119.67,44.76 C118.24,48.56 115.31,52.95 114.04,54.59 C113.57,54.24 113.08,54.12 112.7,54.08 C110.84,53.92 108.96,55.65 108,56.71 C106.15,58.84 104.11,60.74 101.93,62.35 C101.48,62.62 99.63,63.89 99.69,66.83 C99.71,67.83 101.17,72.24 101.8,74.08 C101.94,74.49 102.32,74.76 102.74,74.76 C102.8,74.76 102.85,74.76 102.91,74.75 L112.42,73.16 C112.93,73.08 113.29,72.62 113.25,72.1 C113.25,72.05 112.91,66.71 116.96,61.99 L116.93,61.97 C118.66,60.29 123.13,52.94 123.91,47.2 C124.15,45.45 123.36,43.83 122.08,43.45 Z" fill="url(#hand_3_)"/>
  <path d="M115.64,70.51 C115.62,69.71 114.99,69.06 114.19,69 L101.38,68.25 C101.34,68.25 101.31,68.25 101.27,68.25 C100.49,68.25 99.82,68.84 99.73,69.63 L97.05,88.6 C92.87,85.02 87.1,82.39 79.17,82.39 C76.56,82.39 51.59,82.27 48.97,82.27 C41.04,82.27 35.27,84.9 31.09,88.48 L28.42,69.51 C28.33,68.72 27.66,68.13 26.87,68.13 C26.83,68.13 26.8,68.13 26.76,68.13 L13.95,68.88 C13.15,68.94 12.53,69.59 12.5,70.39 L12.39,110.93 C12.25,118.04 17.97,123.87 25.08,123.87 C30,123.87 33.94,120.18 34.54,115.56 L34.57,115.58 L34.57,123.99 L36.07,123.99 L37.57,123.99 L90.55,123.99 L92.05,123.99 L93.55,123.99 L93.55,115.7 L93.59,115.68 C94.19,120.3 98.13,123.99 103.05,123.99 C110.16,123.99 115.88,118.15 115.74,111.05 L115.64,70.51 Z" fill="url(#SVGID_1_)"/>
  <path d="M99.06,123.1 C98.47,122.84 97.92,122.52 97.41,122.13 C96.7,121.6 96.06,120.97 95.52,120.27 C94.5,118.96 93.83,117.38 93.61,115.68 L93.59,115.69 L93.21,105.01 C93.21,105.01 93.84,114.16 99.06,123.1 Z" fill="#009984"/>
  <path d="M34.93,105.01 L34.55,115.6 L34.55,115.61 C34.12,118.84 32.05,121.61 29.16,122.97 C34.3,114.07 34.93,105.01 34.93,105.01 Z" fill="#009984"/>
  <path d="M54.92,78.33 L54.92,88.31 C54.92,92.82 58.54,96.48 64,96.48 C69.46,96.48 73.08,92.82 73.08,88.31 L73.08,78.33 L54.92,78.33 Z" fill="#3C2B24"/>
  <path d="M86.49,43.78 L36.77,49.83 C31.41,50.48 27.59,55.69 28.29,61.4 C28.98,67.11 33.94,71.25 39.3,70.6 L89.02,64.55 C94.38,63.9 98.2,58.69 97.5,52.98 C96.81,47.27 91.85,43.13 86.49,43.78 Z" fill="#3C2B24"/>
  <path id="head" d="M57.28,10.99 L57.28,10.99 L57.28,10.99 C41.44,12.92 28.84,31.63 31.81,56 C34.76,80.23 51.32,90.38 66.71,88.51 C82.1,86.64 95.75,72.82 92.8,48.58 C89.83,24.21 73.11,9.07 57.28,10.99 Z" fill="#70534A"/>
  <path id="mouth" d="M71.05,75.72 C71.27,78.5 68.84,79.27 65.78,79.51 C62.72,79.75 60.2,79.3 59.98,76.59 C59.76,73.73 62.1,71.77 65.15,71.53 C68.21,71.29 70.82,72.81 71.05,75.72 Z" fill="#1A1717"/>
  <path id="nose" d="M67.1,62.41 C67,62.38 66.9,62.37 66.8,62.37 L60.36,63.15 C60.26,63.17 60.17,63.21 60.08,63.26 C59.52,63.57 59.28,64.21 59.63,64.82 C59.98,65.43 61.48,67.08 64.07,66.77 C66.65,66.46 67.71,64.49 67.91,63.82 C68.1,63.14 67.71,62.58 67.1,62.41 Z" fill="#33251F"/>
  <path d="M52.011,55.916 C52.317,58.466 50.569,60.773 48.107,61.068 C45.645,61.364 43.401,59.537 43.094,56.987 C42.788,54.437 44.536,52.13 46.998,51.835 C49.46,51.539 51.704,53.366 52.011,55.916 Z" fill="#1A1717"/>
  <path d="M81.782,52.336 C82.088,54.886 80.34,57.193 77.878,57.489 C75.416,57.785 73.172,55.957 72.865,53.408 C72.559,50.858 74.307,48.551 76.769,48.255 C79.231,47.959 81.475,49.786 81.782,52.336 Z" fill="#1A1717"/>
  <path d="M81.77,45 C79.07,44.2 76.37,44.07 73.71,45.15 C72.84,45.5 71.89,46.35 70.93,46.44 C70.24,46.51 69.57,46.05 69.39,45.37 C69.23,44.75 69.54,44.23 69.88,43.73 C71.83,40.88 75.64,39.63 78.96,40.28 C80.44,40.57 82.06,41.25 83.1,42.39 C84.08,43.47 83.46,45.46 81.77,45 Z" fill="#1A1717"/>
  <path d="M39.6,47.91 C41.22,44.88 45,43.48 48.29,43.83 C49.78,43.99 51.26,44.53 52.46,45.45 C53.37,46.15 54.54,47.59 53.07,48.49 C52.14,49.05 50.66,48.28 49.72,48.12 C48.37,47.9 46.98,47.93 45.65,48.22 C44.29,48.51 43.08,49.05 41.89,49.75 C40.63,50.47 38.81,49.47 39.6,47.91 Z" fill="#1A1717"/>
  <path id="hair_7_" d="M56.56,4.43 L56.56,4.43 C56.55,4.43 56.55,4.43 56.54,4.43 C56.53,4.43 56.53,4.43 56.52,4.43 L56.52,4.43 C14.83,9.63 29.05,56.26 29.05,56.26 C29.05,56.26 31.51,60.95 32.62,63.02 C32.78,63.32 33.23,63.23 33.26,62.89 C33.68,58.8 35.2,44.29 36.3,39.8 C36.95,37.16 39.4,35.37 42.12,35.54 C46.3,35.79 52.92,35.94 60.11,35.08 C60.14,35.08 60.16,35.07 60.19,35.07 C60.22,35.07 60.24,35.06 60.27,35.06 C67.46,34.2 73.86,32.51 77.86,31.28 C80.46,30.48 83.26,31.64 84.52,34.06 C86.64,38.15 91.5,51.82 92.88,55.75 C92.99,56.07 93.45,56.05 93.54,55.72 L95.44,48.35 C95.45,48.35 98.31,-0.32 56.56,4.43 Z" fill="#232020"/>
  <path id="hairHighlights" d="M95.45,48.35 C95.45,48.35 98.32,-0.32 56.57,4.43 L56.57,4.43 C56.56,4.43 56.56,4.43 56.56,4.43 L56.56,4.43 C56.55,4.43 56.55,4.43 56.55,4.43 L56.55,4.43 C55.9,4.51 55.27,4.6 54.65,4.7 C53.41,4.9 52.23,5.14 51.09,5.41 C51.08,5.41 51.07,5.42 51.06,5.42 C50.98,5.44 50.9,5.46 50.82,5.48 C16.2,14.1 29.07,56.26 29.07,56.26 L32.64,62.98 C32.8,63.28 33.24,63.19 33.28,62.86 C33.7,58.73 35.22,44.28 36.32,39.8 C36.97,37.16 39.42,35.37 42.14,35.54 C46.32,35.79 52.94,35.94 60.13,35.08 C60.16,35.08 60.18,35.07 60.21,35.07 C60.24,35.07 60.26,35.06 60.29,35.06 C67.48,34.2 73.88,32.51 77.88,31.28 C80.48,30.48 83.28,31.64 84.54,34.06 C86.67,38.17 91.56,51.94 92.92,55.8 C93.03,56.12 93.48,56.1 93.57,55.77 C94.15,53.51 95.45,48.35 95.45,48.35 Z" fill="url(#hairHighlights_1_)"/>
</svg>
